confirmation/static/delete-warning-sign.svg

<?xml version="1.0" encoding="UTF-8"?>
<svg width="32px" height="30px" viewBox="0 0 32 30" version="1.1" xmlns="http://www.w3.org/2000/svg" xmlns:xlink="http://www.w3.org/1999/xlink">
    <!-- Generator: Sketch 46.2 (44496) - http://www.bohemiancoding.com/sketch -->
    <title>deletebm</title>
    <desc>Created with Sketch.</desc>
    <defs></defs>
    <g id="Page-1" stroke="none" stroke-width="1" fill="none" fill-rule="evenodd">
        <g id="deletebm">
            <path d="M15.3056696,0.312765217 L0.0733217391,28.373287 C-0.143026087,28.7718957 0.145669565,29.2567652 0.598886957,29.2567652 L31.0635826,29.2567652 C31.5168,29.2567652 31.8054957,28.7718957 31.5891478,28.373287 L16.3568,0.312765217 C16.1303652,-0.104278261 15.5317565,-0.104278261 15.3056696,0.312765217" id="Fill-1" fill="#E60013"></path>
            <path d="M14.8513739,22.7723478 L16.6044174,22.7723478 L16.7644174,25.2071304 L14.6774609,25.2071304 L14.8513739,22.7723478 Z M16.6270261,20.9386087 L14.8739826,20.9386087 L14.3278957,9.55495652 L17.1508522,9.55495652 L16.6270261,20.9386087 Z" id="Fill-4" fill="#FFFFFF"></path>
        </g>
    </g>
</svg>

<svg width="32" height="30" xmlns="http://www.w3.org/2000/svg"><g fill="none" fill-rule="evenodd"><path d="M15.306.313L.073 28.373a.598.598 0 0 0 .526.884h30.465a.598.598 0 0 0 .525-.884L16.357.313a.598.598 0 0 0-1.051 0" fill="#E60013"/><path d="M14.851 22.772h1.753l.16 2.435h-2.087l.174-2.435zm1.776-1.833h-1.753l-.546-11.384h2.823l-.524 11.384z" fill="#FFF"/></g></svg>
